X: 37983
T: Spatter The Dew
R: slip jig
M: 9/8
K: Dmajor
|:F2 F F^EF d3|F3 FEF AFE|
[1 FAF F^EF d3|c>BA B2 F AF^E:|
[2 FAF FEF def|edB BAF AFE||
|:Add cec dcB|A2 c ecc fdB|
[1 A2 d c/d/ec d3|c>BA B2 F AFE:|
[2 A2 d c/d/ec def|edB B/c/dF AFE||
|:FDF FdF FdF|FDF FdF GG/F/E|
[1 FD/E/F FdF Fdd|c>BA BFF AFE:|
[2 FD/E/F FdF def|edB BAF AFE||
|:ecA Ace d2 f|ecA A/B/cA fdB|
[1 ecA AcA d3|c>BA B2 F AFE:|
[2 ec/d/e a^gf edc|edB B/c/dF AFE||
|:DFA DFA dAF|DFA DFA GG/F/E|
[1 DFA DFA d3|c>BA B2 F AFE:|
[2 DFA DFA def|edB BAF AFE||

